src/icons/solid/users/logout.svg

<svg width="24" height="24" viewBox="0 0 24 24" fill="none" xmlns="http://www.w3.org/2000/svg">
<g clip-path="url(#clip0_92_766)">
<path d="M14.1729 2C15.3359 2.05783 16.2108 2.99287 16.1611 4.08203V9.83594H7.90039C6.6679 9.83608 5.66406 10.8098 5.66406 12.0049C5.6641 13.1999 6.66792 14.1737 7.90039 14.1738H16.1611V19.957C16.2106 21.0074 15.336 21.9421 14.2129 22H2.99023C1.82721 21.9422 0.952251 21.0071 1.00195 19.918V4.04297C0.952498 2.99258 1.82714 2.0579 2.9502 2H14.1729ZM18.3086 8.17871C18.5969 7.89919 19.074 7.89919 19.3623 8.17871L22.7812 11.4941C22.8508 11.5616 22.9106 11.6388 22.9404 11.7256C22.9801 11.8123 23 11.9086 23 12.0049C23 12.1012 22.9802 12.1975 22.9404 12.2842C22.9007 12.3709 22.8508 12.4482 22.7812 12.5156L19.3623 15.8311C19.2132 15.9756 19.0238 16.043 18.835 16.043C18.6462 16.0429 18.4576 15.9756 18.3086 15.8311C18.0204 15.5515 18.0203 15.0891 18.3086 14.8096L20.4551 12.7275H7.90039C7.49304 12.7273 7.1553 12.3999 7.15527 12.0049C7.15527 11.6098 7.49302 11.2824 7.90039 11.2822H20.4551L18.3086 9.2002C18.0204 8.92071 18.0204 8.45824 18.3086 8.17871Z" fill="#1D1B20"/>
</g>
<defs>
<clipPath id="clip0_92_766">
<rect width="24" height="24" fill="white"/>
</clipPath>
</defs>
</svg>

<svg xmlns="http://www.w3.org/2000/svg" width="24" height="24" fill="none" viewBox="0 0 24 24"><g clip-path="url(#a)"><path fill="currentColor" d="M14.173 2c1.163.058 2.038.993 1.988 2.082v5.754h-8.26c-1.233 0-2.237.974-2.237 2.169s1.004 2.169 2.236 2.169h8.261v5.783c.05 1.05-.825 1.985-1.948 2.043H2.99c-1.163-.058-2.038-.993-1.988-2.082V4.043C.952 2.993 1.827 2.058 2.95 2zm4.136 6.179a.767.767 0 0 1 1.053 0l3.42 3.315a.6.6 0 0 1 .158.232.67.67 0 0 1 0 .558.8.8 0 0 1-.159.232l-3.419 3.315a.75.75 0 0 1-.527.212.75.75 0 0 1-.526-.212.71.71 0 0 1 0-1.021l2.146-2.083H7.9a.74.74 0 0 1-.745-.722.74.74 0 0 1 .745-.723h12.555L18.31 9.2a.71.71 0 0 1 0-1.021"/></g><defs><clipPath id="a"><path fill="currentColor" d="M0 0h24v24H0z"/></clipPath></defs></svg>
